X: 13975
T: Francie Dearg's
R: polka
M: 2/4
K: Dmajor
d>B|:AF dF/d/|cB B>F|GE cE/c/|BA F>G|
AF dF/d/|cB B>d|c/A/c/e/ ac|1 ed d>B:|2 ed d>e||
K: Bmin
dB cA|B/c/d/e/ f>e|dB B>c|BA F>e|
dB cA|B/c/d/e/ f>e|dB/d/ c/B/A/c/|B2 B>c|
dB cA|B/c/d/e/ f>e|dB B>d|cA F>e|
dB cA|B/c/d/e/ f/g/f/e/|dB/d/ c/B/A/c/|B2 Bd/B/||

